X:1
T:Ah, Holy Jesus
T:Le tra: Johann Heermann (1585-1647); Melodia: Johann Crüger (1598-1662)
T:HERZLIEBSTER JESU www.hymnary.org/text/ah_holy_jesus_how_hast_thou_offended
T:Ó meu Jesus
T:This hymn is in the public domain.  You may freely use this score for personal and congregational worship.  If you reproduce the score, please credit Hymnary.org as the source. 
T:IECLB HPD 48  LC 426
T:This hymn is in the public domain.  You may freely use this score for personal and congregational worship.  If you reproduce the score, please credit Hymnary.org as the source. 
T:This hymn is in the public domain.  You may freely use this score for personal and congregational worship.  If you reproduce the score, please credit Hymnary.org as the source. 
Z:This hymn is in the public domain.  You may freely use this score for personal and congregational worship.  If you reproduce the score, please credit Hymnary.org as the source.
%%score [ ( 1 2 ) ( 3 4 ) ]
L:1/8
M:4/4
K:G
V:1 treble nm="Piano"
V:2 treble 
V:3 bass nm="Piano"
V:4 bass 
V:1
 [B,E]4 [CE]2 [CE]2 | [A,D]4 B,4 | [B,E]2 [B,F]2 [EG]2 [DG]2 | [CA]4 [B,F]4 | [B,F]4 [B,G]2 [DA]2 | %5
w: Ó, meu Je-|sus, que|mal tu co- me-|tes- te|que tão cru-|
 [DB]4 [EG]4 | [Ec]2 [Ec]2 [DB]2 [DB]2 | [DA]4 [B,G]4 | [EG]4 [DF]2 [CE]2 | [B,D]4 [G,B,]4 | %10
w: el sen-|ten- ça re- ce-|bes- te?|Qual tu- a|cul- pa?|
 [B,D]2 [A,D]2 [B,E]2 [B,D]2 | C4 [F,B,]4 | [B,B]4 [CA]2 [B,G]2 | F4 [G,E]4 :| %14
w: Quais os teus pe-|ca- dos|tão cas- ti-|ga- dos?|
V:2
 x8 | x4 B,4 | x8 | x8 | x8 | x8 | x8 | x8 | x8 | x8 | x8 | (A,2 G,2) x4 | x8 | (B,3 A,) x4 :| %14
V:3
 [E,G,]4 [C,G,]2 [A,,A,]2 | [D,F,]4 [G,,D,]4 | [E,G,]2 [D,F,]2 [C,E,]2 [B,,G,]2 | %3
 [A,,E,]4 [B,,^D,]4 | [B,,^D,]4 E,2 [=D,F,]2 | [G,,G,]4 [C,E,]4 | [A,,A,]2 E,F, G,2 G,2 | %7
 (G,2 F,2) [G,,G,]4 | [E,,B,]4 [B,,B,]2 [C,G,]2 | [G,,G,]4 [G,,D,]4 | %10
 [G,,D,]2 [F,,F,]2 [E,,G,]2 [G,,G,]2 | [A,,E,]4 [B,,^D,]4 | %12
"_2. És açoitado, adornam-te de espinhos, \n bofetadas pagam teus carinhos.\nDão-te vinagre, morres desprezado,à cruz pregado.\n\n3. Por que motivo foste maltratado? \nFoi minha culpa, foi o meu pecado! \nEu, meu Jesus, causei as tuas dores, teus amargores.\n\n4. Ó que castigo singular e estranho:\nO Bom Pastor morrer por seu rebanho! \nPaga o Senhor a culpa dos criados já condenados.\n\n5. Morre Jesus, que andava em reta estrada, \ne o pecador, que é mau, não sofre nada; \nquem mereceu a morte sai ileso; o Justo é preso.\n\n6. Foi teu amor profundo e sem medida \nque te lançou em ânsia dolorida. \nEu me entregava ao mundo, às alegrias;tu padecias.\n\n7. Ó Rei supremo, Todo-Poderoso, \ncomo pagar o teu amor precioso? \nO teu amor pagar jamais podemos! Graças rendemos! \n\n8. Quando, afinal, da terra eu for chamado, \nquando acordar no Reino teu sagrado, \nhei de louvar, por toda a eternidade, tua bondade!\ntua bondade!\n" (E,2 G,2) [A,,E,]2 [E,,E,]2 | %13
 (E,2 ^D,2) [E,,E,]4 :| %14
V:4
 x8 | x8 | x8 | x8 | x4 E,2 x2 | x8 | x2 A,,2 B,,3 C, | D,4 x4 | x8 | x8 | x8 | x8 | G,,4 x4 | %13
 B,,4 x4 :| %14

